X:109
T:RVW2/2/109 I Once Was A Bold Fellow
C:Mr. Stacey, Hollycombe, Sussex, 28 May 1904
L:1/4
Q:1/4=110
M:3/4
I:linebreak $
K:G
"^(Editorial suggestion  " d | d d c/e/ | d"^(a)" B (d/B/) | G E F | G2 (B/c/) | d B e |$ d c B | 
w: I|once was a bold|fel- low and _|went with a|team, and _|all my de-|light was a-|
A G A | B2 B/c/ | d B e | d c B |$ A G A | B2 B/c/ | d d e | c B d/B/ | G E F | G2 ||$ d | 
w: keep- ing them|clean * *||||||||||
d d c/e/ | d"^(a) var." d d/B/ | G E F | G2 B/c/ | d B e |$ d c B | A G A | B2 B/c/ | d B e | 
w: |||||||||
d c B |$ A G A | B2 B/c/ | d d e | c B d/B/ | G E F | G2 |] 
w: |||||||



